images/icons/phone-modal.svg

<svg width="18" height="18" viewBox="0 0 18 18" fill="none" xmlns="http://www.w3.org/2000/svg">
<g clip-path="url(#clip0_1_2673)">
<path d="M13.996 11.1226L12.1579 10.9127C11.7164 10.862 11.2822 11.014 10.971 11.3252L9.63945 12.6568C7.59144 11.6147 5.91251 9.94296 4.87041 7.8877L6.20922 6.54888C6.5204 6.2377 6.67237 5.80349 6.62171 5.36205L6.41185 3.53836C6.325 2.80745 5.70988 2.25745 4.97173 2.25745H3.71976C2.902 2.25745 2.22175 2.93771 2.2724 3.75547C2.65595 9.93572 7.59868 14.8712 13.7717 15.2548C14.5894 15.3054 15.2697 14.6252 15.2697 13.8074V12.5555C15.2769 11.8245 14.7269 11.2094 13.996 11.1226Z" fill="#212121"/>
</g>
<defs>
<clipPath id="clip0_1_2673">
<rect width="18" height="18" fill="white"/>
</clipPath>
</defs>
</svg>

<svg xmlns="http://www.w3.org/2000/svg" width="18" height="18" fill="none"><g clip-path="url(#a)"><path fill="#212121" d="m14 11.1-1.8-.2c-.5 0-1 .1-1.2.4l-1.4 1.4c-2-1-3.7-2.8-4.7-4.8l1.3-1.4c.3-.3.5-.7.4-1.1l-.2-1.9c0-.7-.7-1.2-1.4-1.2H3.7c-.8 0-1.5.6-1.4 1.5.4 6.1 5.3 11 11.5 11.5.8 0 1.5-.7 1.5-1.5v-1.2c0-.8-.6-1.4-1.3-1.5Z"/></g><defs><clipPath id="a"><path fill="#fff" d="M0 0h18v18H0z"/></clipPath></defs></svg>
